dist/assets/images/icons/tools.svg

<svg width="33" height="31" viewBox="0 0 33 31" fill="none" xmlns="http://www.w3.org/2000/svg">
<path fill-rule="evenodd" clip-rule="evenodd" d="M28.163 28.7328L18.7214 19.0967L21.0355 16.735L30.4771 26.3711L28.163 28.7328ZM7.42837 28.5437L5.11423 26.1819L14.8335 16.2628L18.2585 12.7674L20.7577 10.2166C20.9428 10.0276 21.0354 9.74426 20.9429 9.36638L20.8503 9.17755L20.7577 8.98871C20.3874 7.4772 20.5727 5.87121 21.3132 4.54863C21.9612 3.32053 23.257 2.28138 24.7381 1.9035C25.5712 1.62009 26.4968 1.62 27.3299 1.80894C27.6076 1.9034 27.8853 1.9033 28.163 1.99777L27.8853 2.09233L25.7563 2.75369C25.4786 2.84816 25.2935 3.03707 25.2009 3.32048L24.6456 5.4931L23.9975 7.666C23.905 7.85494 23.9976 8.23269 24.1827 8.42163L25.7563 9.93318L27.2374 11.4447C27.4225 11.7281 27.7002 11.8226 28.0705 11.7281L30.1994 11.1613L30.3846 11.0671C30.292 11.256 30.0144 11.4447 29.8292 11.7281C29.1813 12.2949 28.3482 12.6729 27.5151 12.9563C26.8671 13.0507 26.2192 13.1453 25.4786 13.0508C24.8307 12.9564 24.1827 12.8617 23.6273 12.5783C23.2571 12.3894 22.9793 12.4839 22.7016 12.6729L7.42837 28.5437ZM9.187 9.36638C8.9093 9.08297 8.44661 9.08317 8.16891 9.27211C7.98378 9.36658 7.79853 9.55531 7.6134 9.64978H7.52089C7.33576 9.74425 7.15056 9.93327 6.87286 10.0277C6.7803 10.1222 6.68774 10.1221 6.59518 10.2166C6.31748 10.5 6.13237 10.8779 6.03981 11.1613C5.94724 11.4447 5.94729 11.7281 5.94729 12.0115L5.02158 12.9563L3.54064 11.4447L3.44798 11.3505V11.2559H3.35547L1.9669 9.74434L2.8001 8.79959C3.17036 8.79959 3.44797 8.79978 3.72567 8.70532C4.1885 8.61085 4.55885 8.32737 4.83655 8.04396C4.92912 7.94949 4.92901 7.85503 5.02158 7.76056C5.11414 7.57162 5.11413 7.38261 5.29926 7.09921C5.39183 6.91027 5.48447 6.72126 5.66961 6.43785C5.85474 6.05997 5.76208 5.68204 5.57695 5.4931L5.39192 5.2097L7.70606 2.84796L7.89109 3.13136C8.16879 3.41477 8.63162 3.41486 8.90932 3.22592C9.18701 3.03698 9.46482 2.84816 9.74251 2.75369C10.0202 2.65922 10.2054 2.4702 10.4831 2.37573C10.5756 2.28126 10.6682 2.28117 10.7607 2.28117C11.6864 1.43094 12.5194 1.05311 13.4451 1.14758C13.8153 1.24205 14.1856 1.24213 14.6485 1.52554C14.5559 1.52554 14.4633 1.6201 14.2781 1.6201C13.5376 1.99798 12.8897 2.56453 12.4269 3.41476C12.4269 3.50923 12.3343 3.50941 12.3343 3.60388C12.2418 3.88729 12.2417 4.26522 11.964 4.54863V4.64291C11.8714 5.02078 11.5938 5.30434 11.3161 5.68222C11.131 6.0601 11.2235 6.43804 11.4086 6.62697L16.4998 11.8227L14.1856 14.1844L9.187 9.36638ZM22.2388 15.696L23.6273 14.279C24.2753 14.5624 24.8306 14.6567 25.5711 14.7512C26.4042 14.8457 27.3299 14.7513 28.0705 14.5624C29.1812 14.1845 30.1994 13.6176 31.0325 12.9563C31.8656 12.2005 32.5136 11.1615 32.9764 10.1223C33.069 9.74442 32.8838 9.17745 32.5136 9.08299C32.421 8.98852 32.1433 8.98871 32.0507 8.98871L30.0142 9.64978L28.2556 10.0277L27.0522 8.79959L25.8488 7.57144L26.3117 5.77649L26.682 4.07611L28.4407 3.60388L30.4771 3.03709C30.8474 2.94262 31.125 2.47021 31.0325 2.09233C31.0325 1.99786 30.9399 1.80884 30.7548 1.71437C29.9217 1.05309 28.8109 0.486327 27.7001 0.297388C26.6819 0.0139795 25.4787 0.108541 24.3679 0.39195C22.424 0.864298 20.9429 2.18673 20.0173 3.79271C19.0916 5.3987 18.8139 7.47699 19.2768 9.36638L19.3693 9.46095V9.55551L17.7957 11.1613L13.1674 6.43785C13.26 6.15444 13.445 5.96563 13.5376 5.68222C13.7227 5.30434 13.9079 4.83195 13.9079 4.45407C14.1856 3.98172 14.5559 3.69826 14.9262 3.50932C15.389 3.32038 16.037 3.22601 16.6849 3.32048C16.9626 3.32048 17.1477 3.22602 17.3328 3.03709C17.6105 2.75368 17.6105 2.28138 17.3328 1.9035C16.1295 0.769863 14.8336 0.108461 13.4451 0.013991C12.2417 -0.0804785 10.9459 0.29725 9.74251 1.33641C9.46482 1.43088 9.27958 1.52543 8.90932 1.71437L8.53911 1.99777L8.16891 1.6201C7.79865 1.33669 7.33573 1.33669 7.05803 1.6201L3.63315 5.11543C3.26289 5.39884 3.26289 5.96561 3.63315 6.24901L4.00335 6.62697L3.91084 6.72125V6.81581L3.63315 7.3826C3.54059 7.47707 3.44794 7.47717 3.26281 7.47717C3.17025 7.47717 2.89262 7.57163 2.61493 7.47717C2.42979 7.47717 2.15203 7.57162 1.9669 7.76056L0.208272 9.46095C-0.0694242 9.83882 -0.0694242 10.3111 0.208272 10.5945L2.24458 12.6729L2.33724 12.7674H2.42976V12.8617L4.46621 14.9401C4.83647 15.3179 5.29925 15.3179 5.57695 14.9401L7.33572 13.2397C7.42828 13.1452 7.61345 12.8617 7.52089 12.5783C7.52089 12.3894 7.52084 12.2007 7.6134 11.9172C7.70597 11.8228 7.70601 11.7283 7.79857 11.6338C7.89114 11.5394 8.16881 11.4448 8.35394 11.2559L8.53911 11.1613L13.1674 15.8848L3.44798 25.8043C3.17029 26.1822 3.17029 26.6545 3.44798 26.9379L6.96552 30.4332C7.24321 30.8111 7.706 30.8111 8.07626 30.4332L17.7957 20.514L27.7928 30.7166C28.0705 31.0945 28.5332 31.0945 28.9035 30.7166L32.3284 27.2213C32.6061 26.9379 32.6061 26.4656 32.3284 26.0877L22.2388 15.696Z" fill="#503E3F"/>
</svg>

<svg width="33" height="31" fill="none" xmlns="http://www.w3.org/2000/svg"><path fill-rule="evenodd" clip-rule="evenodd" d="M28.163 28.733l-9.442-9.636 2.314-2.362 9.442 9.636-2.314 2.362zm-20.735-.19l-2.314-2.361 9.72-9.92 3.425-3.495 2.499-2.55c.185-.19.277-.473.185-.85l-.093-.19-.092-.188c-.37-1.512-.185-3.118.555-4.44.648-1.228 1.944-2.268 3.425-2.646.833-.283 1.759-.283 2.592-.094.278.094.555.094.833.189l-.278.094-2.129.662a.843.843 0 00-.555.566l-.555 2.173-.649 2.173c-.092.189 0 .567.186.756l1.573 1.511 1.481 1.512c.186.283.463.378.834.283l2.128-.567.186-.094c-.093.189-.37.378-.556.661-.648.567-1.48.945-2.314 1.228-.648.095-1.296.19-2.036.095-.648-.095-1.296-.19-1.852-.473-.37-.189-.648-.094-.925.095L7.428 28.543zM9.187 9.367c-.278-.283-.74-.283-1.018-.094-.185.095-.37.283-.556.378h-.092c-.185.094-.37.283-.648.378-.093.094-.185.094-.278.189a2.528 2.528 0 00-.555.944c-.093.284-.093.567-.093.85l-.925.945-1.481-1.511-.093-.095v-.094h-.093L1.967 9.744 2.8 8.8c.37 0 .648 0 .926-.095.463-.094.833-.378 1.11-.661.093-.095.093-.189.186-.283.092-.19.092-.378.277-.662.093-.189.185-.378.37-.661.186-.378.093-.756-.092-.945l-.185-.283 2.314-2.362.185.283c.278.284.74.284 1.018.095.278-.189.556-.378.834-.472.277-.095.462-.284.74-.378.093-.095.185-.095.278-.095.925-.85 1.758-1.228 2.684-1.133.37.094.74.094 1.204.378-.093 0-.186.094-.37.094a4.256 4.256 0 00-1.852 1.795c0 .094-.093.094-.093.189-.092.283-.092.661-.37.945v.094c-.093.378-.37.661-.648 1.04-.185.377-.093.755.093.944l5.09 5.196-2.313 2.361-4.999-4.818zm13.052 6.33l1.388-1.417c.648.283 1.204.378 1.944.472.833.095 1.759 0 2.5-.189a9.987 9.987 0 002.961-1.606c.834-.755 1.482-1.794 1.944-2.834.093-.378-.092-.945-.462-1.039-.093-.094-.37-.094-.463-.094l-2.037.66-1.758.379L27.052 8.8 25.85 7.57l.463-1.795.37-1.7 1.759-.472 2.036-.567c.37-.094.648-.567.555-.945 0-.094-.092-.283-.277-.378C29.922 1.054 28.81.486 27.7.297 26.682.014 25.48.11 24.368.392c-1.944.472-3.425 1.795-4.35 3.4-.926 1.607-1.204 3.685-.741 5.574l.092.095v.095l-1.573 1.605-4.629-4.723c.093-.284.278-.472.37-.756.186-.378.37-.85.37-1.228a2.416 2.416 0 011.02-.945c.462-.189 1.11-.283 1.758-.189.278 0 .463-.094.648-.283.277-.283.277-.756 0-1.133C16.13.77 14.833.107 13.445.014c-1.203-.094-2.5.283-3.702 1.322-.278.095-.463.19-.834.378l-.37.284-.37-.378c-.37-.283-.833-.283-1.111 0L3.633 5.115a.717.717 0 000 1.134l.37.378-.092.094v.095l-.278.567c-.092.094-.185.094-.37.094-.093 0-.37.095-.648 0a.99.99 0 00-.648.284L.208 9.46c-.277.378-.277.85 0 1.133l2.037 2.079.092.094h.093v.095l2.036 2.078c.37.378.833.378 1.11 0l1.76-1.7c.092-.095.277-.378.185-.662 0-.189 0-.377.092-.66.093-.095.093-.19.186-.284.092-.095.37-.19.555-.378l.185-.095 4.628 4.724-9.719 9.92c-.278.377-.278.85 0 1.133l3.518 3.495c.277.378.74.378 1.11 0l9.72-9.919 9.997 10.203c.277.378.74.378 1.11 0l3.425-3.496c.278-.283.278-.755 0-1.133l-10.09-10.392z" fill="#503E3F"/></svg>
